src/images/logo.svg

<?xml version="1.0" encoding="UTF-8" standalone="no"?>
<!-- Created with Inkscape (http://www.inkscape.org/) -->

<svg
   xmlns:dc="http://purl.org/dc/elements/1.1/"
   xmlns:cc="http://creativecommons.org/ns#"
   xmlns:rdf="http://www.w3.org/1999/02/22-rdf-syntax-ns#"
   xmlns:svg="http://www.w3.org/2000/svg"
   xmlns="http://www.w3.org/2000/svg"
   xmlns:sodipodi="http://sodipodi.sourceforge.net/DTD/sodipodi-0.dtd"
   xmlns:inkscape="http://www.inkscape.org/namespaces/inkscape"
   width="121.69765mm"
   height="105.80755mm"
   viewBox="0 0 121.69765 105.80755"
   version="1.1"
   id="svg8"
   inkscape:version="0.92.3 (2405546, 2018-03-11)"
   sodipodi:docname="logo.svg">
  <defs
     id="defs2" />
  <sodipodi:namedview
     id="base"
     pagecolor="#ffffff"
     bordercolor="#666666"
     borderopacity="1.0"
     inkscape:pageopacity="0.0"
     inkscape:pageshadow="2"
     inkscape:zoom="0.49497475"
     inkscape:cx="217.15765"
     inkscape:cy="-166.05623"
     inkscape:document-units="mm"
     inkscape:current-layer="layer2"
     showgrid="false"
     inkscape:window-width="3820"
     inkscape:window-height="1032"
     inkscape:window-x="0"
     inkscape:window-y="28"
     inkscape:window-maximized="0"
     showguides="false"
     fit-margin-top="0"
     fit-margin-left="0"
     fit-margin-right="0"
     fit-margin-bottom="0" />
  <metadata
     id="metadata5">
    <rdf:RDF>
      <cc:Work
         rdf:about="">
        <dc:format>image/svg+xml</dc:format>
        <dc:type
           rdf:resource="http://purl.org/dc/dcmitype/StillImage" />
        <dc:title></dc:title>
      </cc:Work>
    </rdf:RDF>
  </metadata>
  <g
     inkscape:groupmode="layer"
     id="layer2"
     inkscape:label="Layer 2"
     transform="translate(-5.2495858,-66.881189)">
    <path
       style="fill:#ffffff;fill-opacity:0.51063831;stroke:none;stroke-width:0.99999994px;stroke-linecap:butt;stroke-linejoin:miter;stroke-opacity:1"
       d="m 460.62891,252.7793 c 0,0 17.17248,22.22148 -35.35547,20.20117 -41.57779,-1.59914 -45.79415,44.16056 -45.75391,63.35351 -15.84034,12.18168 -33.58502,25.8904 -52.67578,40.75 a 146.9772,140.41123 0 0 0 -31.94727,-21.56054 c -3.81662,-11.91758 -12.33872,-30.65589 -28.7207,-33.04492 -1.51523,-0.22098 -3.00342,-0.33729 -4.46094,-0.36133 -17.0989,-0.28209 -30.02219,12.11883 -34.85742,17.54883 A 146.9772,140.41123 0 0 0 95.169922,418.9375 c -6.348725,2.52107 -17.836842,8.42461 -21.429688,19.20312 -3.233157,9.6995 2.63337,21.23914 7.279297,28.30469 a 146.9772,140.41123 0 0 0 -0.71289,13.61719 146.9772,140.41123 0 0 0 24.318359,77.17578 c -54.364753,47.2514 -90.965595,83.85694 -83.916016,91.51953 16.313351,17.73191 79.817096,-28.70177 116.271486,-57.98242 a 146.9772,140.41123 0 0 0 90.30469,29.69922 146.9772,140.41123 0 0 0 146.97656,-140.41211 146.9772,140.41123 0 0 0 -31.72266,-86.75 c 17.26002,-17.63414 33.26501,-34.1188 47.57227,-48.91602 29.61134,-1.01263 86.07429,-5.61317 80.49609,-47.06836 7.39398,-5.70026 11.17506,-11.76796 8.14258,-22.1289 -2.10584,8.21277 -8.24841,6.95121 -12.94531,4.54101 4.72852,-5.63318 10.44799,-21.48614 -5.17578,-26.96093 z"
       transform="scale(0.26458333)"
       id="path3785"
       inkscape:connector-curvature="0" />
    <path
       style="fill:#ffffff;stroke:none;stroke-width:0.26458332px;stroke-linecap:butt;stroke-linejoin:miter;stroke-opacity:1"
       d="m 31.805073,108.84225 -9.888972,5.87993 c 0,0 -1.069078,1.87089 0,4.27631 1.069078,2.40543 16.83798,24.85607 16.83798,24.85607 l 10.95805,-6.1472 z"
       id="path3729"
       inkscape:connector-curvature="0" />
    <path
       style="fill:#ffffff;stroke:none;stroke-width:0.26458332px;stroke-linecap:butt;stroke-linejoin:miter;stroke-opacity:1"
       d="m 34.878674,107.37227 10.022607,-6.01357 12.428032,20.04522 c 0,0 -2.586106,0.89308 3.741774,9.75534 l -8.418991,4.94448 z"
       id="path3731"
       inkscape:connector-curvature="0"
       sodipodi:nodetypes="cccccc" />
    <path
       style="fill:#ffffff;stroke:none;stroke-width:0.26458332px;stroke-linecap:butt;stroke-linejoin:miter;stroke-opacity:1"
       d="M 47.70761,99.888721 59.333836,93.206984 70.69279,114.05401 60.269278,119.93394 Z"
       id="path3733"
       inkscape:connector-curvature="0" />
    <path
       style="fill:#ffffff;stroke:none;stroke-width:0.26458332px;stroke-linecap:butt;stroke-linejoin:miter;stroke-opacity:1"
       d="m 62.273798,91.603366 11.358957,20.847024 7.750815,-4.40995 -7.216277,-17.105248 c 0,0 -3.073599,-6.815373 -11.893495,0.668174 z"
       id="path3735"
       inkscape:connector-curvature="0" />
    <path
       style="fill:#ffffff;stroke:none;stroke-width:0.26458332px;stroke-linecap:butt;stroke-linejoin:miter;stroke-opacity:1"
       d="m 43.164029,150.5363 39.82316,-23.51972 -2.806333,-3.60814 -14.165283,8.01809 -5.078122,-7.88446 20.713388,-11.62622 c 0,0 7.216277,-5.47902 8.285356,1.73725 1.069078,7.21628 1.603618,18.8425 1.603618,18.8425 0,0 -7.483546,3.74178 -4.677217,8.55263 2.80633,4.81085 2.672694,5.61266 2.672694,5.61266 0,0 -4.543581,12.82894 -22.985179,15.10073 0,0 -1.737251,-0.93544 -4.81085,-7.34991 -3.0736,-6.41447 -8.552625,1.33634 -8.552625,1.33634 0,0 -5.612659,1.46999 -10.022607,-5.21175 z"
       id="path3737"
       inkscape:connector-curvature="0" />
  </g>
</svg>

<?xml version="1.0" encoding="UTF-8" standalone="no"?>
<!-- Created with Inkscape (http://www.inkscape.org/) -->

<svg
   xmlns:dc="http://purl.org/dc/elements/1.1/"
   xmlns:cc="http://creativecommons.org/ns#"
   xmlns:rdf="http://www.w3.org/1999/02/22-rdf-syntax-ns#"
   xmlns:svg="http://www.w3.org/2000/svg"
   xmlns="http://www.w3.org/2000/svg"
   xmlns:sodipodi="http://sodipodi.sourceforge.net/DTD/sodipodi-0.dtd"
   xmlns:inkscape="http://www.inkscape.org/namespaces/inkscape"
   width="210mm"
   height="297mm"
   viewBox="0 0 210 297"
   version="1.1"
   id="svg8"
   inkscape:version="0.92.3 (2405546, 2018-03-11)"
   sodipodi:docname="logo.svg">
  <defs
     id="defs2" />
  <sodipodi:namedview
     id="base"
     pagecolor="#ffffff"
     bordercolor="#666666"
     borderopacity="1.0"
     inkscape:pageopacity="0.0"
     inkscape:pageshadow="2"
     inkscape:zoom="1.4"
     inkscape:cx="236.9986"
     inkscape:cy="675.21019"
     inkscape:document-units="mm"
     inkscape:current-layer="layer2"
     showgrid="false"
     inkscape:window-width="1325"
     inkscape:window-height="1032"
     inkscape:window-x="819"
     inkscape:window-y="28"
     inkscape:window-maximized="0"
     showguides="false" />
  <metadata
     id="metadata5">
    <rdf:RDF>
      <cc:Work
         rdf:about="">
        <dc:format>image/svg+xml</dc:format>
        <dc:type
           rdf:resource="http://purl.org/dc/dcmitype/StillImage" />
        <dc:title></dc:title>
      </cc:Work>
    </rdf:RDF>
  </metadata>
  <g
     inkscape:groupmode="layer"
     id="layer2"
     inkscape:label="Layer 2">
    <path
       style="fill:#ffffff;fill-opacity:0.5106383;stroke:none;stroke-width:0.99999994px;stroke-linecap:butt;stroke-linejoin:miter;stroke-opacity:1"
       d="M 460.62891 252.7793 C 460.62891 252.7793 477.80139 275.00078 425.27344 272.98047 C 383.69565 271.38133 379.47929 317.14103 379.51953 336.33398 C 363.67919 348.51566 345.93451 362.22438 326.84375 377.08398 A 146.9772 140.41123 0 0 0 294.89648 355.52344 C 291.07986 343.60586 282.55776 324.86755 266.17578 322.47852 C 264.66055 322.25754 263.17236 322.14123 261.71484 322.11719 C 244.61594 321.8351 231.69265 334.23602 226.85742 339.66602 A 146.9772 140.41123 0 0 0 95.169922 418.9375 C 88.821197 421.45857 77.33308 427.36211 73.740234 438.14062 C 70.507077 447.84012 76.373604 459.37976 81.019531 466.44531 A 146.9772 140.41123 0 0 0 80.306641 480.0625 A 146.9772 140.41123 0 0 0 104.625 557.23828 C 50.260247 604.48968 13.659405 641.09522 20.708984 648.75781 C 37.022335 666.48972 100.52608 620.05604 136.98047 590.77539 A 146.9772 140.41123 0 0 0 227.28516 620.47461 A 146.9772 140.41123 0 0 0 374.26172 480.0625 A 146.9772 140.41123 0 0 0 342.53906 393.3125 C 359.79908 375.67836 375.80407 359.1937 390.11133 344.39648 C 419.72267 343.38385 476.18562 338.78331 470.60742 297.32812 C 478.0014 291.62786 481.78248 285.56016 478.75 275.19922 C 476.64416 283.41199 470.50159 282.15043 465.80469 279.74023 C 470.53321 274.10705 476.25268 258.25409 460.62891 252.7793 z "
       transform="scale(0.26458333)"
       id="path3785" />
    <path
       style="fill:#ffffff;stroke:none;stroke-width:0.26458332px;stroke-linecap:butt;stroke-linejoin:miter;stroke-opacity:1"
       d="m 31.805073,108.84225 -9.888972,5.87993 c 0,0 -1.069078,1.87089 0,4.27631 1.069078,2.40543 16.83798,24.85607 16.83798,24.85607 l 10.95805,-6.1472 z"
       id="path3729"
       inkscape:connector-curvature="0" />
    <path
       style="fill:#ffffff;stroke:none;stroke-width:0.26458332px;stroke-linecap:butt;stroke-linejoin:miter;stroke-opacity:1"
       d="m 34.878674,107.37227 10.022607,-6.01357 12.428032,20.04522 c 0,0 -2.586106,0.89308 3.741774,9.75534 l -8.418991,4.94448 z"
       id="path3731"
       inkscape:connector-curvature="0"
       sodipodi:nodetypes="cccccc" />
    <path
       style="fill:#ffffff;stroke:none;stroke-width:0.26458332px;stroke-linecap:butt;stroke-linejoin:miter;stroke-opacity:1"
       d="M 47.70761,99.888721 59.333836,93.206984 70.69279,114.05401 60.269278,119.93394 Z"
       id="path3733"
       inkscape:connector-curvature="0" />
    <path
       style="fill:#ffffff;stroke:none;stroke-width:0.26458332px;stroke-linecap:butt;stroke-linejoin:miter;stroke-opacity:1"
       d="m 62.273798,91.603366 11.358957,20.847024 7.750815,-4.40995 -7.216277,-17.105248 c 0,0 -3.073599,-6.815373 -11.893495,0.668174 z"
       id="path3735"
       inkscape:connector-curvature="0" />
    <path
       style="fill:#ffffff;stroke:none;stroke-width:0.26458332px;stroke-linecap:butt;stroke-linejoin:miter;stroke-opacity:1"
       d="m 43.164029,150.5363 39.82316,-23.51972 -2.806333,-3.60814 -14.165283,8.01809 -5.078122,-7.88446 20.713388,-11.62622 c 0,0 7.216277,-5.47902 8.285356,1.73725 1.069078,7.21628 1.603618,18.8425 1.603618,18.8425 0,0 -7.483546,3.74178 -4.677217,8.55263 2.80633,4.81085 2.672694,5.61266 2.672694,5.61266 0,0 -4.543581,12.82894 -22.985179,15.10073 0,0 -1.737251,-0.93544 -4.81085,-7.34991 -3.0736,-6.41447 -8.552625,1.33634 -8.552625,1.33634 0,0 -5.612659,1.46999 -10.022607,-5.21175 z"
       id="path3737"
       inkscape:connector-curvature="0" />
  </g>
</svg>
